X:1
T:Ye little birds - Pye
T:Ye little birds - Pye
T:#
T:#
%%score [ 1 2 3 4 ]
L:1/8
Q:1/4=116
M:4/4
K:D
V:1 treble nm="Soprano" snm="S"
V:2 treble nm="Alto" snm="A"
V:3 treble-8 nm="Tenor" snm="T"
V:4 bass nm="Bass" snm="B"
V:1
"^Andante con moto""^Ye little birds""^Thomas Heywood\n(c. 1575-1641)""^Kellow J. Pye\n(1812-1901)" A2 | %1
w: Ye|
 (Bc) d2 c2 B2 | A3 B A2 G2 | F2 F2 A2 (GF) |[M:4/4] E4 A2 A2 | (Bc) d2 c2 B2 | A3 B A2 E2 | %7
w: lit\- * tle birds that|sit and sing A-|midst the sha- dy *|val- leys And|see * how Phyl- lis|sweet- ly walks with-|
 F2 A2 d2 D2 | E4 D2 (EF) | G2 (DE) F2 B2 | (ce) (dc) B3 c | d2 (AB) (cd) e2 | %12
w: in her gar- den|al- leys: Go *|pret- ty * birds a-|bout * her * bow'r; Sing|pret- ty * birds, * she|
 (^GA) B2 A2!p!"^Slower"[Q:1/4=100] A2 | A3 A A2 A2 | A2 G2 !fermata!A4 ||!mf!"^Tempo Imo" A2 | %16
w: may * not low'r. (Ah!|me, me- thinks I|see her frown.)|Sing|
 Bcdd c3 B | A3 B A2 G2 | F2 A2 d2 D2 | E4 F4 ||[M:4/4] z2 A2 | (Bc) d2 c2 B2 | A3 B A2 G2 | %23
w: pret- ty birds she may, she|may not low'r, Ye|pret- ty wan- tons|war- ble.|Go|tell * her through your|chirp- ing bills as|
 F2 F2 A2 (GF) | E4 A2 z2 | z8 | z8 |[Q:1/4=105] z8 | z4 z2"^Tempo Imo"!mp![Q:1/4=116] E2 | %29
w: you by me are *|bid- den,||||Go|
 (FG) A2 (EF) G2 | (FG) A2 E2 z2 | z!pp! AAA A2 A2 | A3 A A2"^Slower"[Q:1/4=105] A2 | A3 A A2 A2 | %34
w: pret\- * ty birds * and|tell * her so;|See that your notes are|sweet and low, For|still me- thinks I|
"^rall."[Q:1/4=100] d2 d2 (=c2[Q:1/4=50] !fermata!=F2) |!mp!"^Tempo Imo"[Q:1/4=116] _B2 BB A2 D2 | %36
w: see her frown; *|See that your notes are|
 G3 =F E2 E2 | =F3 E F2 G2 | A4 A4 || z2!mf! A2 | (Bc) d2 (cd) B2 | A3 B A2 G2 | F2 F2 A2 (GF) | %43
w: sweet and low, Ye|pret- ty wan- tons|war- ble.|Then|tune * your voi\- * ces'|me- lo- dy, Tell|her I am her *|
 E4 A2 A2 | (Bc) d2 c2 B2 | A3 B A2 G2 | F2 A2 d2 D2 | E4 D2 (EF) | G2 (DE) F2 B2 | %49
w: lo- ver. Sing|loud * and sweet that|ev'- ry note with|sweet con- tent may|move her. And *|she that * hath the|
 (cd/e/) (dc) B2 (Bc) | d2 (AB) (cd) e2 | (^GA) B2 A2!p!"^Slower"[Q:1/4=108] A2 | A3 A A2 A2 | %53
w: sweet\- * * est * voice; Tell *|her I * will * not|change * my choice. (Ah|me, a- las! I|
"^rall."[Q:1/4=100] d2 G2[Q:1/4=50] !fermata!A2!f![Q:1/4=116] A2 | %54
w: fear she frowns.) But|
"^Tempo Imo"[Q:1/4=116] (Bc) d2 c2 B2 | A3 B A2 G2 | F2 A2"^rall."[Q:1/4=110] d2[Q:1/4=104] D2 | %57
w: should * you hear a|kind re- ply, you|pret- ty wan- tons,|
[Q:1/4=95] E4[Q:1/4=90] D4 |] %58
w: war- ble.|
V:2
 A2 | G2 F2 E2 (DE) | F3 F D2 E2 | D2 D2 F2 (ED) |[M:4/4] (D2 CB,) C2 D2 | D2 A2 G2 G2 | %6
w: Ye|lit- tle birds that *|sit and sing A-|midst the sha- dy *|val\- * * leys And|see how Phyl- lis|
 E2 C2 D2 E2 | D2 E2 D2 D2 | (D2 C2) D2 C2 | B,2 B,2 ^A,2 F2 | G2 (FE) D2 D2 | (AB) c2 A2 A2 | %12
w: sweet- ly walks with-|in her gar- den|al\- * leys: Go|pret- ty birds a-|bout her * bow'r; Sing|pret\- * ty birds, she|
 E2 D2 C2!p!"^Slower" C2 | D3 G =F2 E2 | D2 D2 !fermata!C4 ||!mf!"^Tempo Imo" D2 | (DE) F2 G3 C | %17
w: may not low'r. (Ah!|me, me- thinks I|see her frown.)|Sing|pret\- * ty birds, she|
 D2 F2 D2 E2 | D2 C2 D2 D2 | (D2 C2) D4 ||[M:4/4] z2 F2 | G2 F2 G2 (DE) | F2 F2 D2 E2 | %23
w: may not low'r, Ye|pret- ty wan- tons|war\- * ble.|Go|tell her through your *|chirp- ing bills as|
 D2 D2 F2 (ED) | (D2 CB,) C2!p! F2 | G2 F2 A2 G2 | F3 G F2 E2 |"^rall." D2 D2 E2 ^E2 | F4 F2 z2 | %29
w: you by me are *|bid\- * * den, To|her a- lone is|known my love Which|from the world is|hid- den.|
 z4 z2!mp! C2 | D3 D (C2 E2) |!pp! FG A2 (EF) G2 | (FG) A2 E2"^Slower" E2 | D3 G =F2 E2 | %34
w: And|tell her so; *|See that your notes * are|sweet * and low, For|still me- thinks I|
"^rall." D2 E2 !fermata!=F4 |!mp!"^Tempo Imo" D2 DD D2 D2 | C3 D E2 E2 | D3 E D2 D2 | C4 C4 || %39
w: see her frown;|See that your notes are|sweet and low, Ye|pret- ty wan- tons|war- ble.|
 z2!mf! A2 | G2 F2 (GF) (DE) | F3 F D2 E2 | D2 D2 F2 (ED) | (D2 CB,) C2 D2 | D2 A2 G2 G2 | %45
w: Then|tune your voi\- * ces' *|me- lo- dy, Tell|her I am her *|lo\- * * ver. Sing|loud and sweet that|
 E2 C2 D2 E2 | D2 E2 D2 D2 | (D2 C2) D2 C2 | B,2 B,2 ^A,2 F2 | (G2 F)E D2 D2 | (AB) c2 A2 A2 | %51
w: ev'- ry note with|sweet con- tent may|move * her. And|she that hath the|sweet\- * est voice; Tell|her * I will not|
 E3 D C2!p!"^Slower" C2 | D3 G =F2 E2 |"^rall." D2 D2 !fermata!C2!f! D2 | %54
w: change my choice. (Ah|me, a- las! I|fear she frowns.) But|
"^Tempo Imo" (DE) F2 G3 C | D2 F2 D2 E2 | D3 C"^rall." D2 D2 | C4 D4 |] %58
w: should * you hear a|kind re- ply, you|pret- ty wan- tons,|war- ble.|
V:3
 z2 | z2 A2 (GA) (Bc) | d2 F2 F2 A2 | A2 d2 A2 (Bd) |[M:4/4][K:treble-8] A4 A2 z2 | z2 D2 (EF) G2 | %6
w: |Ye lit\- * tle *|birds that sing A-|midst the sha- dy *|val- leys|And see * how|
 A3 G F2 A2 | A2 A2 F2 A2 | A4 F2 z2 | z8 | z4 z2 B2 | FG (A3 B) (cd) | e2 e2 A2!p!"^Slower" A2 | %13
w: Phyl- lis walks with-|in her gar- den|al- leys:||Sing|pret- ty birds, * she *|may not low'r. (Ah!|
 A3 c d2 A2 | =F2 D2 !fermata!E4 ||!mf!"^Tempo Imo" F2 | G2 A2 (GA) A2 | A2 d2 F2 A2 | A3 G F2 A2 | %19
w: me, me- thinks I|see her frown.)|Sing|pret- ty birds, * she|may not low'r, Ye|pret- ty wan- tons|
 A4 A4 ||[M:4/4][K:treble-8] z2 z2 | z2 D2 (EF) G2 | F2 d2 B2 c2 | d2 B2 F2 G2 | A4 A2 z2 | %25
w: war- ble.||Go tell * her|through your bills as|you by me are|bid- den,|
 z2!p! d2 e2 d2 | d3 d d2 c2 |"^rall." d2 d2 c2 B2 | ^A4 A2"^Tempo Imo"!mp! c2 | d2 AB (cd) e2 | %30
w: To her is|known my love Which|from the world is|hid- den. Go|go pret- ty birds * and|
 d2 (AB) c4 |!pp! d2 AB (cd) e2 | d2 (AB) c2"^Slower" c2 | d3 c d2 A2 | %34
w: tell her * so;|See that your notes * are|sweet and * low, For|still me- thinks I|
"^rall." =F2 G2 !fermata!A4 |!mp!"^Tempo Imo" G2 GG A2 A2 | A3 A A2 A2 | A3 A A2 G2 | E4 E4 || z4 | %40
w: see her frown;|See that your notes are|sweet and low, Ye|pret- ty wan- tons|war- ble.||
 z2!mf! A2 (GA) (Bc) | d2 F2 F2 A2 | A2 d2 A2 (Bd) | A4 A2 z2 | z2 D2 (EF) G2 | A3 G F2 A2 | %46
w: Then tune * your *|me- lo- dy, Tell|her I am her *|lo- ver.|Sing sweet * that|ev'- ry note with|
 A2 A2 F2 A2 | A4 F2 z2 | z8 | z4 z2 B2 | FG (A3 B) (cd) | e2 e2 A2!p!"^Slower" A2 | A3 c d2 A2 | %53
w: sweet con- tent may|move her.||Tell|her I will * not *|change my choice. (Ah|me, a- las! I|
"^rall." =F2 G2 !fermata!E2!f! ^F2 |"^Tempo Imo" G2 A2 (GA) A2 | A2 d2 F2 A2 | A3 G"^rall." F2 A2 | %57
w: fear she frowns.) But|should you hear * a|kind re- ply, you|pret- ty wan- tons,|
 (A2 G2) F4 |] %58
w: war\- * ble.|
V:4
 z2 | z2 D,2 (E,F,) G,2 | F,2 D,2 B,,2 C,2 | D,2 B,,2 F,,2 G,,2 |[M:4/4] A,,4 A,,2 F,2 | %5
w: |Ye lit\- * tle|birds that sing A-|midst the sha- dy|val- leys And|
 G,2 F,2 E,2 D,2 | C,2 A,,2 B,,2 C,2 | D,2 C,2 B,,2 F,2 | A,4 D,2 A,2 | (E,F,) G,2 F,2 D,2 | %10
w: see how Phyl- lis|sweet- ly walks with-|in her gar- den|al- leys: Go|pret\- * ty birds a-|
 E,2 F,2 B,,2 z2 | z8 | z4 z2!p!"^Slower" G,2 | =F,3 E, D,2 =C,2 | _B,,2 B,,2 !fermata!A,,4 || z2 | %16
w: bout her bow'r;||(Ah!|me, me- thinks I|see her frown.)||
 z2!mf! D,2 E,F,G,G, | F,2 D,2 B,,2 C,2 | D,2 A,,2 B,,2 F,,2 | A,,4 D,4 ||[M:4/4] z2 z2 | z8 | z8 | %23
w: Sing pret- ty birds, she|may not low'r, Ye|pret- ty wan- tons|war- ble.||||
 z8 | z4 z2!p! A,2 | (B,C) D2 C2 B,2 | A,3 B, A,2 G,2 |"^rall." F,2 F,,2 G,,2 G,,2 | %28
w: |To|her * a- lone is|known my love Which|from the world is|
 F,,4 F,,2"^Tempo Imo"!mp! =A,,2 | (D,E,)F,G, A,2 A,,2 | (D,E,) (F,G,) A,4 | %31
w: hid- den. Go|Go, * pret- ty birds and|tell * her * so;|
!pp! (D,E,)F,G, A,2 A,,2 | (D,E,) (F,G,) A,2"^Slower" G,2 | =F,3 E, D,2 =C,2 | %34
w: See * that your notes are|sweet * and * low, For|still me- thinks I|
"^rall." _B,,2 B,,2 !fermata!A,,4 |!mp!"^Tempo Imo" G,2 G,G, =F,2 F,2 | E,3 D, C,2 C,2 | %37
w: see her frown;|See that your notes are|sweet and low, Ye|
 D,3 C, D,2 _B,,2 | A,,4 A,,4 || z4 | z2!mf! D,2 (E,F,) G,2 | F,2 D,2 B,,2 C,2 | %42
w: pret- ty wan- tons|war- ble.||Then tune * your|me- lo- dy, Tell|
 D,2 B,,2 F,,2 G,,2 | A,,4 A,,2 F,2 | G,2 F,2 E,2 D,2 | C,2 A,,2 B,,2 C,2 | D,2 C,2 B,,2 F,2 | %47
w: her I am her|lo- ver. Sing|loud and sweet that|ev'- ry note with|sweet con- tent may|
 A,4 D,2 A,2 | (E,F,) G,2 F,2 D,2 | E,2 F,2 B,,2 z2 | z8 | z4 z2!p!"^Slower" G,2 | %52
w: move her. And|she * that hath the|sweet- est voice;||(Ah|
 =F,3 E, D,2 =C,2 |"^rall." _B,,2 B,,2 !fermata!A,,2 z2 | z2!f!"^Tempo Imo" D,2 E,F,G,G, | %55
w: me, a- las! I|fear she frowns.)|But should you hear a|
 F,2 D,2 B,,2 C,2 | D,3 A,,"^rall." B,,2 F,,2 | A,,4 D,4 |] %58
w: kind re- ply, you|pret- ty wan- tons,|war- ble.|

